media/img/firefox/products/developer/quantum/stylo-engine.svg

<svg xmlns="http://www.w3.org/2000/svg" width="580" height="410" viewBox="0 0 580 410"><path fill="#EFF2F9" d="M3.5 266.3c5.3-48.9 46.1-86 95.2-87.1h1.4c4.2 0 8.4.3 12.6.9 11.4 1.7 46.1 3.7 68.5-30.1 0 0 11.7-16.9 21.8-44.7 0 0 .1-.3.3-.8 11.3-35 36.6-63.6 69.9-79.2.8-.4 1.6-.7 2.4-1.1 55.1-25 120.2-4.3 151.1 47.7 19.8 33.4 12.6 75.3-15 100.4-11.9 10.8-23 22.4-32.8 35.1L344.3 252c-57.5 96.9-102.8 91.2-214.7 104-14.6 1.7-29 4.7-43 9-24.9 7.7-52.8-2.4-66.7-25.8C8.8 321 2.8 300 2.8 278.7"/><path fill="#306FFD" d="M574.9 196.6c-8 49.5-43.5 64.1-43.9 64.3-14.9 9.3-28.8 11.8-48.2 10.4-11.8-.9-42.3-12.3-70 18.4 0 0-14.4 15.3-28.8 41.8 0 0-.1.3-.4.8-16.7 33.6-46.6 58.7-82.6 69.4-1 .3-2.1.6-3.2.9-49.1 13.8-75.3-3.7-96-42.5-7.3-13.6-1-28.5-3.8-43.8-2.5-13.5 3.7-36.7-2-47.4-9.1-16.9-12.4-27.7 10-42.2 12.5-8.2 2.8-12.4 13.6-22.7l44-42c68.4-83.8 81.3-80 178-75.9 10.2.4 20.4.3 30.5-.5 24.2-1.8 82.1-.4 98.8 50.7 6.8 20.5 8 35.5 4 60.3z"/><linearGradient id="a" gradientUnits="userSpaceOnUse" x1="436.992" y1="200.315" x2="139.578" y2="200.315"><stop offset="0" stop-color="#515767"/><stop offset="1" stop-color="#393F4C"/></linearGradient><path fill="url(#a)" d="M437 6.4L140.2 177.3l-.6 216.9L437 224.3"/><path fill="#31363F" d="M133.8 173.3l6.4 4-.6 216.9-5.8-7.3"/><linearGradient id="b" gradientUnits="userSpaceOnUse" x1="436.992" y1="101.375" x2="140.184" y2="101.375"><stop offset="0" stop-color="#44484D"/><stop offset="1" stop-color="#171B1F"/></linearGradient><path fill="url(#b)" d="M140.2 177.3v19.1L437 25.2V6.4"/><path opacity=".7" fill="#171B1F" d="M220.3 149.8L437 25.2"/><linearGradient id="c" gradientUnits="userSpaceOnUse" x1="133.844" y1="90" x2="436.992" y2="90"><stop offset="0" stop-color="#2D323E"/><stop offset="1" stop-color="#505766"/></linearGradient><path fill="url(#c)" d="M140.2 177.3l-6.4-4 297-170.6 6.2 3.7"/><linearGradient id="d" gradientUnits="userSpaceOnUse" x1="230.238" y1="151.581" x2="172.209" y2="151.581"><stop offset="0" stop-color="#5674B9"/><stop offset=".22" stop-color="#536FB1"/><stop offset="1" stop-color="#48609A"/></linearGradient><path opacity=".63" fill="url(#d)" d="M172.2 158.8v19l58-33.4-.1-19"/><path fill="#5674B9" d="M172.2 158.8l-6.4-3.7 58.1-33.3 6.2 3.6"/><g fill="#FFF"><path d="M235.2 131.7v.8l4.3-2.4v-.8"/><path d="M237.1 128.1v5.8l.5-.3v-5.8"/></g><path d="M151.5 179.9c0 1.4-1.1 3.2-2.6 4-1.4.8-2.6.3-2.6-1.1s1.1-3.2 2.6-4c1.5-.8 2.6-.3 2.6 1.1zm7.8-4.5c0 1.4-1.1 3.2-2.6 4-1.4.8-2.6.3-2.6-1.1s1.1-3.2 2.6-4c1.4-.8 2.6-.3 2.6 1.1zm7.7-4.4c0 1.4-1.1 3.2-2.6 4-1.4.8-2.6.3-2.6-1.1 0-1.4 1.1-3.2 2.6-4 1.4-.8 2.6-.3 2.6 1.1z" fill="#FFF"/><path fill="#0D0F11" d="M133.8 192.5l6.4 3.9v-19.1l-6.4-4"/><path opacity=".58" fill="#EFF2F9" d="M553.2 291.4c-8 15.7-25.6 12.1-45.2 21.5-13 6.2-22 24-39.9 28.8-32.6 8.7-53.4-11.9-40.1-37.9 7.4-14.6 22.6-17.2 33.2-25 21.3-15.7 27.3-29.9 55-31.4 33.8-1.7 50.3 18 37 44z"/><path fill="#EFF2F9" d="M510.1 59.6c-5.8 5.9-13.2 1.8-23.3 3.2-6.7.9-13.3 7.6-22 7.2-15.9-.7-22.2-12.9-12.6-22.7 5.4-5.5 12.6-4.5 18.4-6.5 11.8-4 16.5-9.5 29.1-6.2 15.5 4.1 20.1 15.3 10.4 25z"/><g opacity=".19"><path fill="#EDEDED" d="M416.3 78.2L189.9 209v140.8L416.3 219"/><path fill="#E5E5E5" d="M176.8 199.7l13.1 9.3v140.8l-13.1-9.2"/><path fill="#FFF" d="M416.3 78.2L189.9 209l-13.1-9.2L402.4 70.1"/></g><g opacity=".56"><path fill="#EDEDED" d="M437.1 91.6L210.6 222.3v140.8l226.5-130.7"/><path fill="#E5E5E5" d="M197.6 213.1l13 9.2v140.8l-13-9.2"/><path fill="#FFF" d="M437.1 91.6L210.6 222.3l-13-9.1L423.2 83.5"/></g><path fill="#F7F7F7" d="M458.7 105L232.3 235.7v140.8l226.4-130.7"/><path fill="#FFF" d="M458.9 105.2L232.5 235.9l-13.1-9.1L445 97.1"/><path fill="none" stroke="#306FFD" stroke-width="1.5" stroke-linecap="round" stroke-miterlimit="10" d="M289.6 328.1v-48.8m173-52.6L231.4 362.2"/><g stroke="#306EFE" stroke-width="1.5" stroke-linecap="round" stroke-miterlimit="10"><path fill="none" d="M368.5 209.3c0 17.8-14.4 40.6-32.2 50.9-17.8 10.3-32.2 4.2-32.2-13.6s14.4-40.6 32.2-50.9c17.7-10.3 32.2-4.2 32.2 13.6z"/><path fill="none" d="M368.5 209.3c0 17.8-14.4 40.6-32.2 50.9-17.8 10.3-32.2 4.2-32.2-13.6s14.4-40.6 32.2-50.9c17.7-10.3 32.2-4.2 32.2 13.6z"/><path fill="none" d="M358.8 214.9c0 12.5-10.1 28.4-22.5 35.6-12.5 7.2-22.6 2.9-22.6-9.5s10.1-28.4 22.6-35.6c12.4-7.3 22.5-3 22.5 9.5z"/><path fill="#306EFE" d="M340.1 225.6c0 2.1-1.7 4.9-3.9 6.1-2.1 1.2-3.9.5-3.9-1.6s1.7-4.9 3.9-6.1c2.2-1.2 3.9-.5 3.9 1.6z"/><path fill="none" d="M336.2 195.6v9.7m22.6 9.6l9.7-5.6M304 246.5l9.2-5.3m45.8-49.3l-6.7 10.9m-37.3 13l6.4 3.6m14.8 8.5l13-18.1"/></g><path fill="none" stroke="#306FFD" stroke-width="1.5" stroke-linecap="round" stroke-miterlimit="10" d="M448 123.3l-64.9 37.6v50.3l64.9-37.6zM447.7 158.2l-32.5 19.2m-4 2.5l-13.8 8.1m50.3-38.3l-43.4 25.6m43.4-34l-19.2 11.3m-4.5 2.7l-4.6 2.7M448 185.1l-64.9 37.6V273l64.9-37.7zM447.7 220l-32.5 19.2m-4 2.5l-13.8 8.1m50.3-38.3l-43.4 25.6m43.4-34l-19.2 11.3m-4.5 2.7l-4.6 2.7M289.6 224.3V215l-46.3 26.8v113.3m142.4-195.7l-125.8 72.9"/><g stroke="#306EFE" stroke-width="1.5" stroke-linecap="round" stroke-miterlimit="10"><path fill="none" d="M295.6 244.8c0 13-10.6 29.7-23.6 37.2-13 7.5-23.6 3.1-23.6-10s10.6-29.7 23.6-37.2c13-7.5 23.6-3.1 23.6 10z"/><path fill="none" d="M295.6 244.8c0 13-10.6 29.7-23.6 37.2-13 7.5-23.6 3.1-23.6-10s10.6-29.7 23.6-37.2c13-7.5 23.6-3.1 23.6 10z"/><path fill="none" d="M288.5 248.9c0 9.1-7.4 20.8-16.5 26-9.1 5.3-16.5 2.1-16.5-7s7.4-20.8 16.5-26c9.1-5.3 16.5-2.2 16.5 7z"/><path fill="#306EFE" d="M274.8 256.7c0 1.6-1.3 3.6-2.8 4.5-1.6.9-2.8.4-2.8-1.2s1.3-3.6 2.8-4.5c1.6-.9 2.8-.3 2.8 1.2z"/><path fill="none" d="M272 234.8v7.1m16.5 7l7.1-4.1M248.4 272l6.8-3.9m33.5-36l-4.9 7.9m-27.3 9.6l4.6 2.6m10.9 6.2l9.5-13.2"/></g><path fill="none" stroke="#306FFD" stroke-width="1.5" stroke-linecap="round" stroke-miterlimit="10" d="M282.8 284.8L250 304.1m32.8-8.5L250 314.8m32.8-8.5L250 325.6m18.9-.4L250 336.3"/><path fill="#E5E5E5" d="M219.4 226.7l13.1 9.2v140.8l-13.1-9.2"/><path d="M373.8 265.9l-59.7 35.3m-4.1 2.5l-13.8 8.1m77.6-54.5l-70.7 41.8m70.9-50.3l-46.6 27.6m-4.6 2.7l-4.5 2.7M374 239.2v39.5" fill="none" stroke="#306FFD" stroke-width="1.5" stroke-linecap="round" stroke-miterlimit="10"/><path opacity=".76" fill="#64CDED" d="M156 361.1c-8.7 11.7-29.3 19.5-46 17.6-16.7-2-24.5-15.8-15.8-27.4s33.6-5.2 47.3-14.8c25-17.7 23.2 12.9 14.5 24.6z"/></svg>

<svg xmlns="http://www.w3.org/2000/svg" width="580" height="410" viewBox="0 0 580 410"><path fill="#EFF2F9" d="M3.5 266.3c5.3-48.9 46.1-86 95.2-87.1h1.4c4.2 0 8.4.3 12.6.9 11.4 1.7 46.1 3.7 68.5-30.1 0 0 11.7-16.9 21.8-44.7 0 0 .1-.3.3-.8 11.3-35 36.6-63.6 69.9-79.2.8-.4 1.6-.7 2.4-1.1 55.1-25 120.2-4.3 151.1 47.7 19.8 33.4 12.6 75.3-15 100.4-11.9 10.8-23 22.4-32.8 35.1L344.3 252c-57.5 96.9-102.8 91.2-214.7 104-14.6 1.7-29 4.7-43 9-24.9 7.7-52.8-2.4-66.7-25.8C8.8 321 2.8 300 2.8 278.7"/><path fill="#306FFD" d="M574.9 196.6c-8 49.5-43.5 64.1-43.9 64.3-14.9 9.3-28.8 11.8-48.2 10.4-11.8-.9-42.3-12.3-70 18.4 0 0-14.4 15.3-28.8 41.8 0 0-.1.3-.4.8-16.7 33.6-46.6 58.7-82.6 69.4-1 .3-2.1.6-3.2.9-49.1 13.8-75.3-3.7-96-42.5-7.3-13.6-1-28.5-3.8-43.8-2.5-13.5 3.7-36.7-2-47.4-9.1-16.9-12.4-27.7 10-42.2 12.5-8.2 2.8-12.4 13.6-22.7l44-42c68.4-83.8 81.3-80 178-75.9 10.2.4 20.4.3 30.5-.5 24.2-1.8 82.1-.4 98.8 50.7 6.8 20.5 8 35.5 4 60.3z"/><linearGradient id="a" gradientUnits="userSpaceOnUse" x1="436.992" y1="200.315" x2="139.578" y2="200.315"><stop offset="0" stop-color="#515767"/><stop offset="1" stop-color="#393F4C"/></linearGradient><path fill="url(#a)" d="M437 6.4L140.2 177.3l-.6 216.9L437 224.3"/><path fill="#31363F" d="M133.8 173.3l6.4 4-.6 216.9-5.8-7.3"/><linearGradient id="b" gradientUnits="userSpaceOnUse" x1="436.992" y1="101.375" x2="140.184" y2="101.375"><stop offset="0" stop-color="#44484D"/><stop offset="1" stop-color="#171B1F"/></linearGradient><path fill="url(#b)" d="M140.2 177.3v19.1L437 25.2V6.4"/><path opacity=".7" fill="#171B1F" d="M220.3 149.8L437 25.2"/><linearGradient id="c" gradientUnits="userSpaceOnUse" x1="133.844" y1="90" x2="436.992" y2="90"><stop offset="0" stop-color="#2D323E"/><stop offset="1" stop-color="#505766"/></linearGradient><path fill="url(#c)" d="M140.2 177.3l-6.4-4 297-170.6 6.2 3.7"/><linearGradient id="d" gradientUnits="userSpaceOnUse" x1="230.238" y1="151.581" x2="172.209" y2="151.581"><stop offset="0" stop-color="#5674B9"/><stop offset=".22" stop-color="#536FB1"/><stop offset="1" stop-color="#48609A"/></linearGradient><path opacity=".63" fill="url(#d)" d="M172.2 158.8v19l58-33.4-.1-19"/><path fill="#5674B9" d="M172.2 158.8l-6.4-3.7 58.1-33.3 6.2 3.6"/><g fill="#FFF"><path d="M235.2 131.7v.8l4.3-2.4v-.8"/><path d="M237.1 128.1v5.8l.5-.3v-5.8"/></g><g fill="#FFF"><path d="M151.5 179.9c0 1.4-1.1 3.2-2.6 4-1.4.8-2.6.3-2.6-1.1s1.1-3.2 2.6-4c1.5-.8 2.6-.3 2.6 1.1zM159.3 175.4c0 1.4-1.1 3.2-2.6 4-1.4.8-2.6.3-2.6-1.1s1.1-3.2 2.6-4c1.4-.8 2.6-.3 2.6 1.1zM167 171c0 1.4-1.1 3.2-2.6 4-1.4.8-2.6.3-2.6-1.1 0-1.4 1.1-3.2 2.6-4 1.4-.8 2.6-.3 2.6 1.1z"/></g><path fill="#0D0F11" d="M133.8 192.5l6.4 3.9v-19.1l-6.4-4"/><path opacity=".58" fill="#EFF2F9" d="M553.2 291.4c-8 15.7-25.6 12.1-45.2 21.5-13 6.2-22 24-39.9 28.8-32.6 8.7-53.4-11.9-40.1-37.9 7.4-14.6 22.6-17.2 33.2-25 21.3-15.7 27.3-29.9 55-31.4 33.8-1.7 50.3 18 37 44z"/><path fill="#EFF2F9" d="M510.1 59.6c-5.8 5.9-13.2 1.8-23.3 3.2-6.7.9-13.3 7.6-22 7.2-15.9-.7-22.2-12.9-12.6-22.7 5.4-5.5 12.6-4.5 18.4-6.5 11.8-4 16.5-9.5 29.1-6.2 15.5 4.1 20.1 15.3 10.4 25z"/><g><g opacity=".19"><path fill="#EDEDED" d="M416.3 78.2L189.9 209v140.8L416.3 219"/><path fill="#E5E5E5" d="M176.8 199.7l13.1 9.3v140.8l-13.1-9.2"/><path fill="#FFF" d="M416.3 78.2L189.9 209l-13.1-9.2L402.4 70.1"/></g><g opacity=".56"><path fill="#EDEDED" d="M437.1 91.6L210.6 222.3v140.8l226.5-130.7"/><path fill="#E5E5E5" d="M197.6 213.1l13 9.2v140.8l-13-9.2"/><path fill="#FFF" d="M437.1 91.6L210.6 222.3l-13-9.1L423.2 83.5"/></g><path fill="#F7F7F7" d="M458.7 105L232.3 235.7v140.8l226.4-130.7"/><path fill="#FFF" d="M458.9 105.2L232.5 235.9l-13.1-9.1L445 97.1"/><path fill="none" stroke="#306FFD" stroke-width="1.5" stroke-linecap="round" stroke-miterlimit="10" d="M289.6 328.1v-48.8M462.6 226.7L231.4 362.2"/><g stroke="#306EFE" stroke-width="1.5" stroke-linecap="round" stroke-miterlimit="10"><path fill="none" d="M368.5 209.3c0 17.8-14.4 40.6-32.2 50.9-17.8 10.3-32.2 4.2-32.2-13.6s14.4-40.6 32.2-50.9c17.7-10.3 32.2-4.2 32.2 13.6z"/><path fill="none" d="M368.5 209.3c0 17.8-14.4 40.6-32.2 50.9-17.8 10.3-32.2 4.2-32.2-13.6s14.4-40.6 32.2-50.9c17.7-10.3 32.2-4.2 32.2 13.6z"/><path fill="none" d="M358.8 214.9c0 12.5-10.1 28.4-22.5 35.6-12.5 7.2-22.6 2.9-22.6-9.5s10.1-28.4 22.6-35.6c12.4-7.3 22.5-3 22.5 9.5z"/><path fill="#306EFE" d="M340.1 225.6c0 2.1-1.7 4.9-3.9 6.1-2.1 1.2-3.9.5-3.9-1.6s1.7-4.9 3.9-6.1c2.2-1.2 3.9-.5 3.9 1.6z"/><path fill="none" d="M336.2 195.6v9.7M358.8 214.9l9.7-5.6M304 246.5l9.2-5.3M359 191.9l-6.7 10.9M315 215.8l6.4 3.6M336.2 227.9l13-18.1"/></g><path fill="none" stroke="#306FFD" stroke-width="1.5" stroke-linecap="round" stroke-miterlimit="10" d="M448 123.3l-64.9 37.6v50.3l64.9-37.6z"/><g fill="none" stroke="#306FFD" stroke-width="1.5" stroke-linecap="round" stroke-miterlimit="10"><path d="M447.7 158.2l-32.5 19.2M411.2 179.9l-13.8 8.1M447.7 149.7l-43.4 25.6M447.7 141.3l-19.2 11.3M424 155.3l-4.6 2.7"/></g><path fill="none" stroke="#306FFD" stroke-width="1.5" stroke-linecap="round" stroke-miterlimit="10" d="M448 185.1l-64.9 37.6V273l64.9-37.7z"/><g fill="none" stroke="#306FFD" stroke-width="1.5" stroke-linecap="round" stroke-miterlimit="10"><path d="M447.7 220l-32.5 19.2M411.2 241.7l-13.8 8.1M447.7 211.5l-43.4 25.6M447.7 203.1l-19.2 11.3M424 217.1l-4.6 2.7"/></g><path fill="none" stroke="#306FFD" stroke-width="1.5" stroke-linecap="round" stroke-miterlimit="10" d="M289.6 224.3V215l-46.3 26.8v113.3M385.7 159.4l-125.8 72.9"/><g stroke="#306EFE" stroke-width="1.5" stroke-linecap="round" stroke-miterlimit="10"><path fill="none" d="M295.6 244.8c0 13-10.6 29.7-23.6 37.2-13 7.5-23.6 3.1-23.6-10s10.6-29.7 23.6-37.2c13-7.5 23.6-3.1 23.6 10z"/><path fill="none" d="M295.6 244.8c0 13-10.6 29.7-23.6 37.2-13 7.5-23.6 3.1-23.6-10s10.6-29.7 23.6-37.2c13-7.5 23.6-3.1 23.6 10z"/><path fill="none" d="M288.5 248.9c0 9.1-7.4 20.8-16.5 26-9.1 5.3-16.5 2.1-16.5-7s7.4-20.8 16.5-26c9.1-5.3 16.5-2.2 16.5 7z"/><path fill="#306EFE" d="M274.8 256.7c0 1.6-1.3 3.6-2.8 4.5-1.6.9-2.8.4-2.8-1.2s1.3-3.6 2.8-4.5c1.6-.9 2.8-.3 2.8 1.2z"/><path fill="none" d="M272 234.8v7.1M288.5 248.9l7.1-4.1M248.4 272l6.8-3.9M288.7 232.1l-4.9 7.9M256.5 249.6l4.6 2.6M272 258.4l9.5-13.2"/></g><path fill="none" stroke="#306FFD" stroke-width="1.5" stroke-linecap="round" stroke-miterlimit="10" d="M282.8 284.8L250 304.1M282.8 295.6L250 314.8M282.8 306.3L250 325.6M268.9 325.2L250 336.3"/><g><path fill="#E5E5E5" d="M219.4 226.7l13.1 9.2v140.8l-13.1-9.2"/></g><g fill="none" stroke="#306FFD" stroke-width="1.5" stroke-linecap="round" stroke-miterlimit="10"><path d="M373.8 265.9l-59.7 35.3M310 303.7l-13.8 8.1M373.8 257.3l-70.7 41.8M374 248.8l-46.6 27.6M322.8 279.1l-4.5 2.7"/></g><path fill="none" stroke="#306FFD" stroke-width="1.5" stroke-linecap="round" stroke-miterlimit="10" d="M374 239.2v39.5"/></g><path opacity=".76" fill="#64CDED" d="M156 361.1c-8.7 11.7-29.3 19.5-46 17.6-16.7-2-24.5-15.8-15.8-27.4s33.6-5.2 47.3-14.8c25-17.7 23.2 12.9 14.5 24.6z"/></svg>
